X: 130
T: He Stole my Tender Heart away
%R: march, reel
B: Chas & Sam Thompson "Twenty Four Country Dances for the Year 1778", London 1778, p.65 #2
F: http://www.vwml.org/browse/browse-collections-dance-tune-books/browse-thompsons1778#
Z: 2014 John Chambers <jc:trillian.mit.edu> (added dance description)
M: 2/4
L: 1/8
K: D
% - - - - - - - - - - - - - - - - - - - - - - - - - - - - -
A |\
(de)(fg) | a2a2 | ({a}gf)(ga) | f2za |\
g2e2 | f3d | e2c2 | d3 :|
|: A |\
A3A | B2B2 | c2c2 | d2zd |\
e2ze | f3f | ^g2g2 | a2za |\
a2f2 | f2za | g2e2 | e2zd |
e2d2 | c2d2 | g2f2 | ({g}f2e)a |\
a2f2 | f2za | g2e2 | e2zg |\
(fe)(gf) | e2d2 | (fe)(dc) | d3 :|
% - - - - - - - - - - Dance description - - - - - - - - - -
%%begintext align
%% The 1st Gent: turn the 2d Lady .|.
%% 1st Lady turn the 2d Gent: :|. lead down
%% two Cu: and up again cross over and
%% hand 4 round at bottom .|: lead out
%% Sides :|:
%%endtext

%%sep 1 1 500
%%sep 1 1 500
